X: 1
T:Bourr\'ee
L:1/8
M:2/4
O:France
R:Bourr\'ee
K:DMix
D>E FG| A3 _B/A/| G>A _BG | A>G FE | D>E FG | A3 _B/A/ | G>A GF | E4 ::
d>F GA | c>B AG | F>E FG| A4 | d>F GA | c>B AG | Fd FE | D4 :|
